X:1
T:Peggy's
R:jig
M:6/8
L:1/8
K:G
|:BdB GBd|cec E2G|FAF DFA|GBG D2c|
|BdB GBd|cec E2G|FED AFD|1 GAG G2c:|2 GAG GBc|]
|:ded dBd|gbg d2g|faf A2B|cec B2c|
|ded dBd|gbg d2g|fed cAF|1 GAG GBc:|2 GAG G2c|]